svg/fluentui-system-icons/ic_fluent_blur_20_regular.svg

<svg width="20" height="20" viewBox="0 0 20 20" fill="none" xmlns="http://www.w3.org/2000/svg">
<path d="M10 2C5.58172 2 2 5.58172 2 10C2 14.4183 5.58172 18 10 18C12.0289 18 13.8814 17.2447 15.2916 16H10V17C6.13401 17 3 13.866 3 10C3 6.13401 6.13401 3 10 3H13.876C12.7278 2.36284 11.4063 2 10 2ZM10 4H15.2916C15.6375 4.30521 15.9567 4.63985 16.2454 5H10V4ZM16.9297 6H10V7H17.4185C17.2784 6.65398 17.1148 6.31998 16.9297 6ZM10 8H17.748C17.8318 8.32577 17.8957 8.65956 17.9381 9H10V8ZM18 10H10V11H17.9381C17.979 10.6724 18 10.3387 18 10ZM10 12H17.748C17.6597 12.3428 17.5494 12.6766 17.4185 13H10V12ZM16.9297 14H10V15H16.2454C16.4977 14.6853 16.7267 14.3511 16.9297 14Z" fill="#212121"/>
</svg>

<svg xmlns="http://www.w3.org/2000/svg" width="20" height="20"><path d="M10 2a8 8 0 1 0 5.292 14H10v1a7 7 0 1 1 0-14h3.876A7.964 7.964 0 0 0 10 2Zm0 2h5.292c.345.305.665.64.953 1H10V4Zm6.93 2H10v1h7.419a7.972 7.972 0 0 0-.49-1ZM10 8h7.748c.084.326.148.66.19 1H10V8Zm8 2h-8v1h7.938A8.05 8.05 0 0 0 18 10Zm-8 2h7.748a7.95 7.95 0 0 1-.33 1H10v-1Zm6.93 2H10v1h6.245c.253-.315.482-.649.685-1Z"/></svg>
